src/extensions/common/inline-font-size/icon.svg

<svg viewBox="0 0 24 24" fill="none" xmlns="http://www.w3.org/2000/svg">
<path fill-rule="evenodd" clip-rule="evenodd" d="M9.3034 12.1369L12.5 4H14.5L19.99 18H17.74L16.62 15H13.5C13.5521 14.1367 12.8955 13.2779 11.8895 13.2779L9.6183 13.2832C9.65313 12.8918 9.54459 12.4712 9.3034 12.1369ZM11.12 13L13.5 6.67L15.88 13H11.12Z" fill="black"/>
<path d="M11.8895 14.778L8.62346 14.7856C8.57942 14.7856 8.53538 14.8159 8.5207 14.8615L8.27116 15.5833C8.24915 15.6593 8.30052 15.7353 8.37392 15.7353H9.64364C9.73905 15.7353 9.79043 15.8569 9.72437 15.9253L7.69869 18.1059H7.70603L8.74823 21.5022C8.77025 21.5782 8.71887 21.6465 8.64548 21.6465H7.62529C7.57392 21.6465 7.53722 21.6162 7.52254 21.5706L7.00144 19.8306C6.97208 19.7242 6.83264 19.7242 6.79594 19.823L6.37025 21.0463C6.36291 21.0691 6.36291 21.0919 6.37025 21.1147L6.75924 22.5963C6.77392 22.6419 6.81796 22.6799 6.86199 22.6799H10.1501C10.2235 22.6799 10.2748 22.6039 10.2528 22.5355L8.92437 18.2578C8.90969 18.2198 8.92437 18.1743 8.95373 18.1439L11.9702 14.9679C12.0363 14.8995 11.9849 14.778 11.8895 14.778Z"/>
<path d="M8.02164 13L6.03265 13.0076C5.98862 13.0076 5.94458 13.038 5.9299 13.0836L5.67302 13.8054C5.64366 13.8814 5.70238 13.9573 5.77577 13.9573H6.61247C6.68586 13.9573 6.73724 14.0333 6.71522 14.1093L4.34458 20.8259C4.30789 20.9247 4.17578 20.9247 4.13908 20.8259L2.43633 15.9784C2.40697 15.9024 2.46569 15.8265 2.53908 15.8265H3.3978C3.44183 15.8265 3.48587 15.8568 3.50055 15.9024L4.11706 17.65C4.15376 17.7487 4.28587 17.7487 4.32257 17.65L5.27669 14.9299C5.30605 14.8539 5.24733 14.7779 5.17394 14.7779H1.10789C1.0345 14.7779 0.983125 14.8539 1.00514 14.9299L4.13174 23.9259C4.16844 24.0247 4.30055 24.0247 4.33724 23.9259L8.12439 13.152C8.14641 13.076 8.09503 13 8.02164 13Z" fill="#D8141C"/>
</svg>

<svg fill="none" xmlns="http://www.w3.org/2000/svg"><path fill-rule="evenodd" clip-rule="evenodd" d="M9.303 12.137c.242.334.35.755.315 1.146l2.271-.005c1.006 0 1.663.859 1.61 1.722h3.121l1.12 3h2.25L14.5 4h-2l-3.197 8.137zM11.12 13l2.38-6.33L15.88 13h-4.76z"/><path d="M11.89 14.778l-3.267.008a.11.11 0 00-.102.075l-.25.722c-.022.076.03.152.103.152h1.27c.095 0 .146.122.08.19L7.7 18.105h.007l1.042 3.397c.022.076-.03.145-.103.145h-1.02a.104.104 0 01-.102-.076L7 19.83c-.029-.107-.168-.107-.205-.008l-.426 1.223a.109.109 0 000 .069l.39 1.481c.014.046.058.084.102.084h3.288c.073 0 .125-.076.103-.145l-1.329-4.277c-.014-.038 0-.084.03-.114l3.016-3.176c.066-.069.015-.19-.08-.19z"/><path d="M8.022 13l-1.99.008a.11.11 0 00-.102.076l-.257.721c-.03.076.03.152.103.152h.836c.074 0 .125.076.103.152l-2.37 6.717a.108.108 0 01-.206 0l-1.703-4.848a.112.112 0 01.103-.152h.859a.11.11 0 01.103.076l.616 1.748a.108.108 0 00.206 0l.954-2.72a.112.112 0 00-.103-.152H1.108c-.074 0-.125.076-.103.152l3.127 8.996a.108.108 0 00.205 0l3.787-10.774c.022-.076-.029-.152-.102-.152z" fill="#D8141C"/></svg>
